X:1
T:Title
L:1/8
M:4/4
K:F
V:1 treble nm="Grand Piano"
V:1
 z4 z[Q:1/4=92] A,/A,/ DD | F>E- ED- DA,/A,/ DD | F>E- ED- DDEF | G>F- FE- EEFG | A>G- GF- FA,DD | %5
 F>E- ED- DDEF | G>F- FE- EEFG | A2 GA- A^CDF |[M:2/4] E3 D | z D FA |[M:4/4] d>c- cB- BGGG | %11
 A4- AAAc | B>A- AG- GEFG | A4- AAAc | B>A- AG- GEFG | A>G- GF- FFGB | A4- A^CDE | D6 z2 |] %18

